src/lib/packages/icons/src/assets/line/activity-notification-square.svg

<svg width="24" height="24" viewBox="0 0 24 24" fill="none" xmlns="http://www.w3.org/2000/svg">
<path d="M17.62 21.75H6.38C3.717 21.75 2.25 20.2831 2.25 17.6201V6.37012C2.25 3.71312 3.717 2.25 6.38 2.25H14C14.414 2.25 14.75 2.586 14.75 3C14.75 3.414 14.414 3.75 14 3.75H6.38C4.537 3.75 3.75 4.53412 3.75 6.37012V17.6201C3.75 19.4631 4.537 20.25 6.38 20.25H17.62C19.463 20.25 20.25 19.4631 20.25 17.6201V10C20.25 9.586 20.586 9.25 21 9.25C21.414 9.25 21.75 9.586 21.75 10V17.6201C21.75 20.2831 20.283 21.75 17.62 21.75ZM7.53 14.53L10.321 11.739C10.419 11.641 10.577 11.641 10.675 11.739L12.264 13.324C12.946 14.005 14.056 14.005 14.738 13.323L17.531 10.53C17.824 10.237 17.824 9.76199 17.531 9.46899C17.238 9.17599 16.763 9.17599 16.47 9.46899L13.677 12.262C13.579 12.359 13.421 12.36 13.323 12.262L11.734 10.677C11.052 9.996 9.94199 9.99598 9.25999 10.678L6.46899 13.469C6.17599 13.762 6.17599 14.237 6.46899 14.53C6.61499 14.676 6.80699 14.75 6.99899 14.75C7.19099 14.75 7.384 14.677 7.53 14.53ZM22.75 4C22.75 2.483 21.517 1.25 20 1.25C18.483 1.25 17.25 2.483 17.25 4C17.25 5.517 18.483 6.75 20 6.75C21.517 6.75 22.75 5.517 22.75 4ZM21.25 4C21.25 4.689 20.689 5.25 20 5.25C19.311 5.25 18.75 4.689 18.75 4C18.75 3.311 19.311 2.75 20 2.75C20.689 2.75 21.25 3.311 21.25 4Z" fill="currentColor"/>
</svg>

<svg xmlns="http://www.w3.org/2000/svg" width="24" height="24" fill="none"><path fill="currentColor" d="M17.62 21.75H6.38c-2.663 0-4.13-1.467-4.13-4.13V6.37c0-2.657 1.467-4.12 4.13-4.12H14a.75.75 0 0 1 0 1.5H6.38c-1.843 0-2.63.784-2.63 2.62v11.25c0 1.843.787 2.63 2.63 2.63h11.24c1.843 0 2.63-.787 2.63-2.63V10a.75.75 0 0 1 1.5 0v7.62c0 2.663-1.467 4.13-4.13 4.13ZM7.53 14.53l2.791-2.791a.25.25 0 0 1 .354 0l1.589 1.585a1.752 1.752 0 0 0 2.474-.001l2.793-2.793a.75.75 0 1 0-1.061-1.061l-2.793 2.793a.25.25 0 0 1-.354 0l-1.589-1.585a1.752 1.752 0 0 0-2.474.001l-2.791 2.791A.75.75 0 1 0 7.53 14.53ZM22.75 4A2.752 2.752 0 0 0 20 1.25 2.752 2.752 0 0 0 17.25 4 2.752 2.752 0 0 0 20 6.75 2.752 2.752 0 0 0 22.75 4Zm-1.5 0c0 .689-.561 1.25-1.25 1.25S18.75 4.689 18.75 4s.561-1.25 1.25-1.25 1.25.561 1.25 1.25Z"/></svg>
